X:140
T: RIRARO DER SUMMERTAG IST DO
N: E1220
O: Europa, Mitteleuropa, Deutschland, Rheinpfalz
R: Ansinge -, Brauchtums - Lied, Kirchen - Fest, Sommer - Tags - Lied
M: 2/4
L: 1/8
K: F
 | F2A2 | c3
B | AAGG | F2z2
ccAF | ccAF
c2A2 | c2A2
FGAB | c2A2
FGAB | c2A2
F2A2 | c3
B | AAGG | F2z2

